assets/img/torus-login/google-wide.svg

<svg width="219" height="40" viewBox="0 0 219 40" fill="none" xmlns="http://www.w3.org/2000/svg">
<rect width="219" height="40" fill="#4285F4"/>
<g clip-path="url(#clip0)">
<g filter="url(#filter0_dd)">
<path fill-rule="evenodd" clip-rule="evenodd" d="M19 0C17.8954 0 17 0.895431 17 2V38C17 39.1046 17.8954 40 19 40H200C201.105 40 202 39.1046 202 38V2C202 0.895431 201.105 0 200 0H19Z" fill="#4285F4"/>
</g>
</g>
<path d="M56.2139 22.4365C56.2139 21.999 56.0589 21.6618 55.749 21.4248C55.4437 21.1878 54.89 20.9486 54.0879 20.707C53.2858 20.4655 52.6478 20.1966 52.1738 19.9004C51.2669 19.3307 50.8135 18.5879 50.8135 17.6719C50.8135 16.8698 51.1393 16.209 51.791 15.6895C52.4473 15.1699 53.2972 14.9102 54.3408 14.9102C55.0335 14.9102 55.651 15.0378 56.1934 15.293C56.7357 15.5482 57.1618 15.9128 57.4717 16.3867C57.7816 16.8561 57.9365 17.3779 57.9365 17.9521H56.2139C56.2139 17.4326 56.0498 17.027 55.7217 16.7354C55.3981 16.4391 54.9333 16.291 54.3271 16.291C53.762 16.291 53.3223 16.4118 53.0078 16.6533C52.6979 16.8949 52.543 17.2321 52.543 17.665C52.543 18.0296 52.7116 18.335 53.0488 18.5811C53.3861 18.8226 53.9421 19.0596 54.7168 19.292C55.4915 19.5199 56.1136 19.7819 56.583 20.0781C57.0524 20.3698 57.3965 20.707 57.6152 21.0898C57.834 21.4681 57.9434 21.9124 57.9434 22.4229C57.9434 23.2523 57.6243 23.9131 56.9863 24.4053C56.3529 24.8929 55.4915 25.1367 54.4023 25.1367C53.6823 25.1367 53.0192 25.0046 52.4131 24.7402C51.8115 24.4714 51.3421 24.1022 51.0049 23.6328C50.6722 23.1634 50.5059 22.6165 50.5059 21.9922H52.2354C52.2354 22.5573 52.4222 22.9948 52.7959 23.3047C53.1696 23.6146 53.7051 23.7695 54.4023 23.7695C55.0039 23.7695 55.4551 23.6488 55.7559 23.4072C56.0612 23.1611 56.2139 22.8376 56.2139 22.4365ZM61.2861 25H59.625V17.6035H61.2861V25ZM59.5225 15.6826C59.5225 15.4274 59.6022 15.2155 59.7617 15.0469C59.9258 14.8783 60.1582 14.7939 60.459 14.7939C60.7598 14.7939 60.9922 14.8783 61.1562 15.0469C61.3203 15.2155 61.4023 15.4274 61.4023 15.6826C61.4023 15.9333 61.3203 16.1429 61.1562 16.3115C60.9922 16.4756 60.7598 16.5576 60.459 16.5576C60.1582 16.5576 59.9258 16.4756 59.7617 16.3115C59.6022 16.1429 59.5225 15.9333 59.5225 15.6826ZM63.0293 21.2471C63.0293 20.0986 63.2982 19.1826 63.8359 18.499C64.3783 17.8109 65.096 17.4668 65.9893 17.4668C66.8324 17.4668 67.4954 17.7607 67.9785 18.3486L68.0537 17.6035H69.5508V24.7744C69.5508 25.7451 69.2477 26.5107 68.6416 27.0713C68.04 27.6318 67.2266 27.9121 66.2012 27.9121C65.6589 27.9121 65.1279 27.7982 64.6084 27.5703C64.0934 27.347 63.7015 27.0531 63.4326 26.6885L64.2188 25.6904C64.7292 26.2965 65.3581 26.5996 66.1055 26.5996C66.6569 26.5996 67.0921 26.4492 67.4111 26.1484C67.7301 25.8522 67.8896 25.4147 67.8896 24.8359V24.3369C67.4111 24.8701 66.7731 25.1367 65.9756 25.1367C65.1097 25.1367 64.401 24.7926 63.8496 24.1045C63.3027 23.4163 63.0293 22.4639 63.0293 21.2471ZM64.6836 21.3906C64.6836 22.1335 64.834 22.7191 65.1348 23.1475C65.4401 23.5713 65.8617 23.7832 66.3994 23.7832C67.0693 23.7832 67.5661 23.4961 67.8896 22.9219V19.668C67.5752 19.1074 67.083 18.8271 66.4131 18.8271C65.8662 18.8271 65.4401 19.0436 65.1348 19.4766C64.834 19.9095 64.6836 20.5475 64.6836 21.3906ZM73.0234 17.6035L73.0713 18.458C73.6182 17.7972 74.3359 17.4668 75.2246 17.4668C76.765 17.4668 77.5488 18.3486 77.5762 20.1123V25H75.915V20.208C75.915 19.7386 75.8125 19.3923 75.6074 19.1689C75.4069 18.9411 75.0765 18.8271 74.6162 18.8271C73.9463 18.8271 73.4473 19.1302 73.1191 19.7363V25H71.458V17.6035H73.0234ZM84.9658 25H83.3047V17.6035H84.9658V25ZM83.2021 15.6826C83.2021 15.4274 83.2819 15.2155 83.4414 15.0469C83.6055 14.8783 83.8379 14.7939 84.1387 14.7939C84.4395 14.7939 84.6719 14.8783 84.8359 15.0469C85 15.2155 85.082 15.4274 85.082 15.6826C85.082 15.9333 85 16.1429 84.8359 16.3115C84.6719 16.4756 84.4395 16.5576 84.1387 16.5576C83.8379 16.5576 83.6055 16.4756 83.4414 16.3115C83.2819 16.1429 83.2021 15.9333 83.2021 15.6826ZM88.541 17.6035L88.5889 18.458C89.1357 17.7972 89.8535 17.4668 90.7422 17.4668C92.2826 17.4668 93.0664 18.3486 93.0938 20.1123V25H91.4326V20.208C91.4326 19.7386 91.3301 19.3923 91.125 19.1689C90.9245 18.9411 90.5941 18.8271 90.1338 18.8271C89.4639 18.8271 88.9648 19.1302 88.6367 19.7363V25H86.9756V17.6035H88.541ZM105.214 22.71L106.39 17.6035H108.01L105.993 25H104.626L103.04 19.9209L101.481 25H100.114L98.0908 17.6035H99.7109L100.907 22.6553L102.425 17.6035H103.676L105.214 22.71ZM111.106 25H109.445V17.6035H111.106V25ZM109.343 15.6826C109.343 15.4274 109.423 15.2155 109.582 15.0469C109.746 14.8783 109.979 14.7939 110.279 14.7939C110.58 14.7939 110.812 14.8783 110.977 15.0469C111.141 15.2155 111.223 15.4274 111.223 15.6826C111.223 15.9333 111.141 16.1429 110.977 16.3115C110.812 16.4756 110.58 16.5576 110.279 16.5576C109.979 16.5576 109.746 16.4756 109.582 16.3115C109.423 16.1429 109.343 15.9333 109.343 15.6826ZM115.222 15.8057V17.6035H116.527V18.834H115.222V22.9629C115.222 23.2454 115.276 23.4505 115.386 23.5781C115.5 23.7012 115.7 23.7627 115.987 23.7627C116.179 23.7627 116.372 23.7399 116.568 23.6943V24.9795C116.19 25.0843 115.826 25.1367 115.475 25.1367C114.199 25.1367 113.561 24.4326 113.561 23.0244V18.834H112.344V17.6035H113.561V15.8057H115.222ZM119.658 18.4102C120.201 17.7812 120.886 17.4668 121.716 17.4668C123.293 17.4668 124.092 18.3669 124.115 20.167V25H122.454V20.2285C122.454 19.7181 122.342 19.3581 122.119 19.1484C121.9 18.9342 121.577 18.8271 121.148 18.8271C120.483 18.8271 119.986 19.1234 119.658 19.7158V25H117.997V14.5H119.658V18.4102ZM137.514 23.708C137.154 24.1774 136.655 24.5329 136.017 24.7744C135.379 25.016 134.654 25.1367 133.843 25.1367C133.009 25.1367 132.271 24.9476 131.628 24.5693C130.985 24.1911 130.489 23.651 130.138 22.9492C129.791 22.2428 129.611 21.4202 129.598 20.4814V19.7021C129.598 18.1982 129.958 17.0247 130.678 16.1816C131.398 15.334 132.403 14.9102 133.692 14.9102C134.8 14.9102 135.679 15.1836 136.331 15.7305C136.983 16.2773 137.375 17.0658 137.507 18.0957H135.812C135.62 16.8971 134.925 16.2979 133.727 16.2979C132.952 16.2979 132.362 16.5781 131.956 17.1387C131.555 17.6947 131.348 18.5127 131.334 19.5928V20.3584C131.334 21.4339 131.56 22.2702 132.011 22.8672C132.466 23.4596 133.098 23.7559 133.904 23.7559C134.788 23.7559 135.417 23.5553 135.791 23.1543V21.2061H133.74V19.8936H137.514V23.708ZM139.161 21.2334C139.161 20.5088 139.305 19.8571 139.592 19.2783C139.879 18.695 140.282 18.2484 140.802 17.9385C141.321 17.624 141.918 17.4668 142.593 17.4668C143.591 17.4668 144.4 17.7881 145.02 18.4307C145.644 19.0732 145.981 19.9255 146.031 20.9873L146.038 21.377C146.038 22.1061 145.897 22.7578 145.614 23.332C145.336 23.9062 144.935 24.3506 144.411 24.665C143.892 24.9795 143.29 25.1367 142.606 25.1367C141.563 25.1367 140.727 24.7904 140.098 24.0977C139.473 23.4004 139.161 22.473 139.161 21.3154V21.2334ZM140.822 21.377C140.822 22.138 140.979 22.735 141.294 23.168C141.608 23.5964 142.046 23.8105 142.606 23.8105C143.167 23.8105 143.602 23.5918 143.912 23.1543C144.227 22.7168 144.384 22.0765 144.384 21.2334C144.384 20.486 144.222 19.8936 143.898 19.4561C143.579 19.0186 143.144 18.7998 142.593 18.7998C142.05 18.7998 141.62 19.0163 141.301 19.4492C140.982 19.8776 140.822 20.5202 140.822 21.377ZM147.351 21.2334C147.351 20.5088 147.494 19.8571 147.781 19.2783C148.068 18.695 148.472 18.2484 148.991 17.9385C149.511 17.624 150.108 17.4668 150.782 17.4668C151.78 17.4668 152.589 17.7881 153.209 18.4307C153.833 19.0732 154.171 19.9255 154.221 20.9873L154.228 21.377C154.228 22.1061 154.086 22.7578 153.804 23.332C153.526 23.9062 153.125 24.3506 152.601 24.665C152.081 24.9795 151.479 25.1367 150.796 25.1367C149.752 25.1367 148.916 24.7904 148.287 24.0977C147.663 23.4004 147.351 22.473 147.351 21.3154V21.2334ZM149.012 21.377C149.012 22.138 149.169 22.735 149.483 23.168C149.798 23.5964 150.235 23.8105 150.796 23.8105C151.356 23.8105 151.792 23.5918 152.102 23.1543C152.416 22.7168 152.573 22.0765 152.573 21.2334C152.573 20.486 152.411 19.8936 152.088 19.4561C151.769 19.0186 151.334 18.7998 150.782 18.7998C150.24 18.7998 149.809 19.0163 149.49 19.4492C149.171 19.8776 149.012 20.5202 149.012 21.377ZM155.561 21.2471C155.561 20.0986 155.829 19.1826 156.367 18.499C156.91 17.8109 157.627 17.4668 158.521 17.4668C159.364 17.4668 160.027 17.7607 160.51 18.3486L160.585 17.6035H162.082V24.7744C162.082 25.7451 161.779 26.5107 161.173 27.0713C160.571 27.6318 159.758 27.9121 158.732 27.9121C158.19 27.9121 157.659 27.7982 157.14 27.5703C156.625 27.347 156.233 27.0531 155.964 26.6885L156.75 25.6904C157.26 26.2965 157.889 26.5996 158.637 26.5996C159.188 26.5996 159.623 26.4492 159.942 26.1484C160.261 25.8522 160.421 25.4147 160.421 24.8359V24.3369C159.942 24.8701 159.304 25.1367 158.507 25.1367C157.641 25.1367 156.932 24.7926 156.381 24.1045C155.834 23.4163 155.561 22.4639 155.561 21.2471ZM157.215 21.3906C157.215 22.1335 157.365 22.7191 157.666 23.1475C157.971 23.5713 158.393 23.7832 158.931 23.7832C159.601 23.7832 160.097 23.4961 160.421 22.9219V19.668C160.106 19.1074 159.614 18.8271 158.944 18.8271C158.397 18.8271 157.971 19.0436 157.666 19.4766C157.365 19.9095 157.215 20.5475 157.215 21.3906ZM165.78 25H164.119V14.5H165.78V25ZM171.071 25.1367C170.019 25.1367 169.164 24.8063 168.508 24.1455C167.856 23.4801 167.53 22.596 167.53 21.4932V21.2881C167.53 20.5498 167.672 19.8913 167.954 19.3125C168.241 18.7292 168.642 18.2757 169.157 17.9521C169.672 17.6286 170.246 17.4668 170.88 17.4668C171.887 17.4668 172.664 17.7881 173.211 18.4307C173.762 19.0732 174.038 19.9824 174.038 21.1582V21.8281H169.205C169.255 22.4388 169.458 22.9219 169.813 23.2773C170.174 23.6328 170.625 23.8105 171.167 23.8105C171.928 23.8105 172.548 23.5029 173.026 22.8877L173.922 23.7422C173.626 24.1842 173.229 24.5283 172.732 24.7744C172.24 25.016 171.687 25.1367 171.071 25.1367ZM170.873 18.7998C170.417 18.7998 170.048 18.9593 169.766 19.2783C169.488 19.5973 169.31 20.0417 169.232 20.6113H172.397V20.4883C172.361 19.9323 172.213 19.513 171.953 19.2305C171.693 18.9434 171.333 18.7998 170.873 18.7998Z" fill="white"/>
<path fill-rule="evenodd" clip-rule="evenodd" d="M2 1C1.44772 1 1 1.44772 1 2V38C1 38.5523 1.44772 39 2 39H38C38.5523 39 39 38.5523 39 38V2C39 1.44772 38.5523 1 38 1H2Z" fill="white"/>
<path fill-rule="evenodd" clip-rule="evenodd" d="M28.64 20.2046C28.64 19.5664 28.5827 18.9527 28.4764 18.3636H20V21.845H24.8436C24.635 22.97 24.0009 23.9232 23.0477 24.5614V26.8196H25.9564C27.6582 25.2527 28.64 22.9455 28.64 20.2046Z" fill="#4285F4"/>
<path fill-rule="evenodd" clip-rule="evenodd" d="M20 29C22.43 29 24.4673 28.1941 25.9564 26.8195L23.0477 24.5613C22.2418 25.1013 21.2109 25.4204 20 25.4204C17.6559 25.4204 15.6718 23.8372 14.9641 21.71H11.9573V24.0418C13.4382 26.9831 16.4818 29 20 29Z" fill="#34A853"/>
<path fill-rule="evenodd" clip-rule="evenodd" d="M14.9641 21.7099C14.7841 21.1699 14.6818 20.5931 14.6818 19.9999C14.6818 19.4068 14.7841 18.8299 14.9641 18.2899V15.9581H11.9573C11.3477 17.1731 11 18.5477 11 19.9999C11 21.4522 11.3477 22.8268 11.9573 24.0418L14.9641 21.7099Z" fill="#FBBC05"/>
<path fill-rule="evenodd" clip-rule="evenodd" d="M20 14.5795C21.3214 14.5795 22.5077 15.0336 23.4405 15.9255L26.0218 13.3441C24.4632 11.8918 22.4259 11 20 11C16.4818 11 13.4382 13.0168 11.9573 15.9582L14.9641 18.29C15.6718 16.1627 17.6559 14.5795 20 14.5795Z" fill="#EA4335"/>
<defs>
<filter id="filter0_dd" x="16" y="-1" width="187" height="43" filterUnits="userSpaceOnUse" color-interpolation-filters="sRGB">
<feFlood flood-opacity="0" result="BackgroundImageFix"/>
<feColorMatrix in="SourceAlpha" type="matrix" values="0 0 0 0 0 0 0 0 0 0 0 0 0 0 0 0 0 0 127 0"/>
<feOffset dy="1"/>
<feGaussianBlur stdDeviation="0.5"/>
<feColorMatrix type="matrix" values="0 0 0 0 0 0 0 0 0 0 0 0 0 0 0 0 0 0 0.24 0"/>
<feBlend mode="normal" in2="BackgroundImageFix" result="effect1_dropShadow"/>
<feColorMatrix in="SourceAlpha" type="matrix" values="0 0 0 0 0 0 0 0 0 0 0 0 0 0 0 0 0 0 127 0"/>
<feOffset/>
<feGaussianBlur stdDeviation="0.5"/>
<feColorMatrix type="matrix" values="0 0 0 0 0 0 0 0 0 0 0 0 0 0 0 0 0 0 0.12 0"/>
<feBlend mode="normal" in2="effect1_dropShadow" result="effect2_dropShadow"/>
<feBlend mode="normal" in="SourceGraphic" in2="effect2_dropShadow" result="shape"/>
</filter>
<clipPath id="clip0">
<rect width="185" height="40" fill="white" transform="translate(17)"/>
</clipPath>
</defs>
</svg>

<svg width="219" height="40" fill="none" xmlns="http://www.w3.org/2000/svg"><path fill="#4285F4" d="M0 0h219v40H0z"/><g filter="url(#a)" clip-path="url(#b)"><path fill-rule="evenodd" clip-rule="evenodd" d="M19 0a2 2 0 0 0-2 2v36a2 2 0 0 0 2 2h181a2 2 0 0 0 2-2V2a2 2 0 0 0-2-2H19Z" fill="#4285F4"/></g><path d="M56.214 22.436c0-.437-.155-.774-.465-1.011-.305-.237-.859-.476-1.661-.718s-1.44-.51-1.914-.807c-.907-.57-1.36-1.312-1.36-2.228 0-.802.325-1.463.977-1.982.656-.52 1.506-.78 2.55-.78.692 0 1.31.128 1.852.383.543.255.969.62 1.279 1.094.31.47.465.99.465 1.565h-1.723c0-.52-.164-.925-.492-1.217-.324-.296-.789-.444-1.395-.444-.565 0-1.005.12-1.32.362-.31.242-.464.58-.464 1.012 0 .365.169.67.506.916.337.242.893.479 1.668.711.775.228 1.397.49 1.866.786.47.292.814.629 1.032 1.012.219.378.328.822.328 1.333 0 .83-.319 1.49-.957 1.982-.633.488-1.494.732-2.584.732a4.91 4.91 0 0 1-1.989-.397c-.601-.269-1.07-.638-1.408-1.107-.333-.47-.5-1.017-.5-1.64h1.73c0 .564.187 1.002.56 1.312.375.31.91.465 1.607.465.602 0 1.053-.121 1.354-.363.305-.246.458-.57.458-.97ZM61.286 25h-1.661v-7.396h1.661V25Zm-1.764-9.317c0-.256.08-.467.24-.636.164-.169.396-.253.697-.253.3 0 .533.084.697.253.164.168.246.38.246.636 0 .25-.082.46-.246.628-.164.165-.396.247-.697.247-.3 0-.533-.082-.697-.247a.88.88 0 0 1-.24-.628Zm3.507 5.564c0-1.148.27-2.064.807-2.748.542-.688 1.26-1.032 2.153-1.032.843 0 1.506.294 1.99.882l.075-.745h1.497v7.17c0 .971-.303 1.737-.91 2.297-.601.56-1.414.841-2.44.841a3.929 3.929 0 0 1-1.593-.342c-.515-.223-.907-.517-1.175-.881l.786-.999c.51.607 1.14.91 1.887.91.55 0 .986-.15 1.305-.452.32-.296.479-.733.479-1.312v-.5c-.479.534-1.117.8-1.914.8-.866 0-1.575-.343-2.126-1.031-.547-.689-.82-1.641-.82-2.858Zm1.655.144c0 .743.15 1.328.45 1.757.306.423.728.635 1.265.635.67 0 1.167-.287 1.49-.861v-3.254c-.314-.56-.806-.84-1.476-.84-.547 0-.973.216-1.278.649-.301.433-.451 1.07-.451 1.914Zm8.34-3.787.047.854c.547-.66 1.265-.991 2.154-.991 1.54 0 2.324.882 2.351 2.645V25h-1.661v-4.792c0-.47-.103-.816-.308-1.04-.2-.227-.53-.34-.99-.34-.67 0-1.17.302-1.498.908V25h-1.661v-7.396h1.565ZM84.965 25h-1.661v-7.396h1.66V25Zm-1.764-9.317c0-.256.08-.467.24-.636.164-.169.396-.253.697-.253.3 0 .533.084.697.253.164.168.246.38.246.636 0 .25-.082.46-.246.628-.164.165-.397.247-.697.247-.301 0-.533-.082-.698-.247a.88.88 0 0 1-.239-.628Zm5.339 1.92.048.855c.547-.66 1.264-.991 2.153-.991 1.54 0 2.324.882 2.352 2.645V25h-1.661v-4.792c0-.47-.103-.816-.308-1.04-.2-.227-.53-.34-.991-.34-.67 0-1.17.302-1.497.908V25h-1.661v-7.396h1.565Zm16.673 5.107 1.176-5.107h1.62L105.993 25h-1.367l-1.586-5.08-1.559 5.08h-1.367l-2.023-7.396h1.62l1.196 5.051 1.518-5.052h1.251l1.538 5.107Zm5.892 2.29h-1.661v-7.396h1.661V25Zm-1.763-9.317a.89.89 0 0 1 .239-.636c.164-.169.397-.253.697-.253.301 0 .533.084.698.253.164.168.246.38.246.636 0 .25-.082.46-.246.628-.165.165-.397.247-.698.247-.3 0-.533-.082-.697-.247a.882.882 0 0 1-.239-.628Zm5.879.123v1.798h1.305v1.23h-1.305v4.129c0 .282.054.488.164.615.114.123.314.185.601.185.192 0 .385-.023.581-.069v1.286a4.085 4.085 0 0 1-1.093.157c-1.276 0-1.914-.704-1.914-2.113v-4.19h-1.217v-1.23h1.217v-1.798h1.661Zm4.436 2.604c.543-.629 1.228-.943 2.058-.943 1.577 0 2.376.9 2.399 2.7V25h-1.661v-4.771c0-.51-.112-.87-.335-1.08-.219-.215-.542-.322-.971-.322-.665 0-1.162.296-1.49.889V25h-1.661V14.5h1.661v3.91Zm17.856 5.298c-.36.47-.859.825-1.497 1.066-.638.242-1.363.363-2.174.363-.834 0-1.572-.19-2.215-.568a3.802 3.802 0 0 1-1.49-1.62c-.347-.706-.527-1.529-.54-2.468v-.779c0-1.504.36-2.677 1.08-3.52.72-.848 1.725-1.272 3.014-1.272 1.108 0 1.987.274 2.639.82.652.547 1.044 1.336 1.176 2.366h-1.695c-.192-1.199-.887-1.798-2.085-1.798-.775 0-1.365.28-1.771.84-.401.557-.608 1.375-.622 2.455v.765c0 1.076.226 1.912.677 2.51.455.592 1.087.888 1.893.888.884 0 1.513-.2 1.887-.602v-1.948h-2.051v-1.312h3.774v3.814Zm1.647-2.475c0-.724.144-1.376.431-1.955.287-.583.69-1.03 1.21-1.34.519-.314 1.116-.471 1.791-.471.998 0 1.807.321 2.427.964.624.642.961 1.494 1.011 2.556l.007.39c0 .73-.141 1.38-.424 1.955a3.08 3.08 0 0 1-1.203 1.333c-.519.315-1.121.472-1.805.472-1.043 0-1.879-.347-2.508-1.04-.625-.697-.937-1.624-.937-2.782v-.082Zm1.661.144c0 .761.157 1.358.472 1.791.314.428.752.643 1.312.643.561 0 .996-.22 1.306-.657.315-.437.472-1.078.472-1.92 0-.748-.162-1.34-.486-1.778-.319-.437-.754-.656-1.305-.656a1.52 1.52 0 0 0-1.292.65c-.319.428-.479 1.07-.479 1.927Zm6.529-.144c0-.724.143-1.376.43-1.955a3.122 3.122 0 0 1 1.21-1.34c.52-.314 1.117-.471 1.791-.471.998 0 1.807.321 2.427.964.624.642.962 1.494 1.012 2.556l.007.39c0 .73-.142 1.38-.424 1.955a3.08 3.08 0 0 1-1.203 1.333c-.52.315-1.122.472-1.805.472-1.044 0-1.88-.347-2.509-1.04-.624-.697-.936-1.624-.936-2.782v-.082Zm1.661.144c0 .761.157 1.358.471 1.791.315.428.752.643 1.313.643.56 0 .996-.22 1.306-.657.314-.437.471-1.078.471-1.92 0-.748-.162-1.34-.485-1.778-.319-.437-.754-.656-1.306-.656a1.52 1.52 0 0 0-1.292.65c-.319.428-.478 1.07-.478 1.927Zm6.549-.13c0-1.148.268-2.064.806-2.748.543-.688 1.26-1.032 2.154-1.032.843 0 1.506.294 1.989.882l.075-.745h1.497v7.17c0 .971-.303 1.737-.909 2.297-.602.56-1.415.841-2.441.841a3.924 3.924 0 0 1-1.592-.342c-.515-.223-.907-.517-1.176-.881l.786-.999c.51.607 1.139.91 1.887.91.551 0 .986-.15 1.305-.452.319-.296.479-.733.479-1.312v-.5c-.479.534-1.117.8-1.914.8-.866 0-1.575-.343-2.126-1.031-.547-.689-.82-1.641-.82-2.858Zm1.654.144c0 .743.15 1.328.451 1.757.305.423.727.635 1.265.635.67 0 1.166-.287 1.49-.861v-3.254c-.315-.56-.807-.84-1.477-.84-.547 0-.973.216-1.278.649-.301.433-.451 1.07-.451 1.914ZM165.78 25h-1.661V14.5h1.661V25Zm5.291.137c-1.052 0-1.907-.33-2.563-.992-.652-.665-.978-1.549-.978-2.652v-.205c0-.738.142-1.397.424-1.976a3.27 3.27 0 0 1 1.203-1.36 3.172 3.172 0 0 1 1.723-.485c1.007 0 1.784.321 2.331.964.551.642.827 1.551.827 2.727v.67h-4.833c.05.61.253 1.094.608 1.45.361.355.812.533 1.354.533.761 0 1.381-.308 1.859-.923l.896.854a3.01 3.01 0 0 1-1.19 1.032 3.711 3.711 0 0 1-1.661.363Zm-.198-6.337c-.456 0-.825.16-1.107.478-.278.32-.456.764-.534 1.333h3.165v-.123c-.036-.556-.184-.975-.444-1.258-.26-.287-.62-.43-1.08-.43Z" fill="#fff"/><path fill-rule="evenodd" clip-rule="evenodd" d="M2 1a1 1 0 0 0-1 1v36a1 1 0 0 0 1 1h36a1 1 0 0 0 1-1V2a1 1 0 0 0-1-1H2Z" fill="#fff"/><path fill-rule="evenodd" clip-rule="evenodd" d="M28.64 20.205c0-.639-.057-1.252-.164-1.841H20v3.481h4.844a4.14 4.14 0 0 1-1.796 2.716v2.259h2.908c1.702-1.567 2.684-3.875 2.684-6.615Z" fill="#4285F4"/><path fill-rule="evenodd" clip-rule="evenodd" d="M20 29c2.43 0 4.467-.806 5.956-2.18l-2.908-2.259c-.806.54-1.837.86-3.048.86-2.344 0-4.328-1.584-5.036-3.711h-3.007v2.332A8.997 8.997 0 0 0 20 29Z" fill="#34A853"/><path fill-rule="evenodd" clip-rule="evenodd" d="M14.964 21.71a5.41 5.41 0 0 1-.282-1.71c0-.593.102-1.17.282-1.71v-2.332h-3.007A8.996 8.996 0 0 0 11 20c0 1.452.348 2.827.957 4.042l3.007-2.332Z" fill="#FBBC05"/><path fill-rule="evenodd" clip-rule="evenodd" d="M20 14.58c1.321 0 2.508.454 3.44 1.345l2.582-2.58C24.463 11.891 22.426 11 20 11a8.996 8.996 0 0 0-8.043 4.958l3.007 2.332c.708-2.127 2.692-3.71 5.036-3.71Z" fill="#EA4335"/><defs><clipPath id="b"><path fill="#fff" transform="translate(17)" d="M0 0h185v40H0z"/></clipPath><filter id="a" x="16" y="-1" width="187" height="43" filterUnits="userSpaceOnUse" color-interpolation-filters="sRGB"><feFlood flood-opacity="0" result="BackgroundImageFix"/><feColorMatrix in="SourceAlpha" values="0 0 0 0 0 0 0 0 0 0 0 0 0 0 0 0 0 0 127 0"/><feOffset dy="1"/><feGaussianBlur stdDeviation=".5"/><feColorMatrix values="0 0 0 0 0 0 0 0 0 0 0 0 0 0 0 0 0 0 0.24 0"/><feBlend in2="BackgroundImageFix" result="effect1_dropShadow"/><feColorMatrix in="SourceAlpha" values="0 0 0 0 0 0 0 0 0 0 0 0 0 0 0 0 0 0 127 0"/><feOffset/><feGaussianBlur stdDeviation=".5"/><feColorMatrix values="0 0 0 0 0 0 0 0 0 0 0 0 0 0 0 0 0 0 0.12 0"/><feBlend in2="effect1_dropShadow" result="effect2_dropShadow"/><feBlend in="SourceGraphic" in2="effect2_dropShadow" result="shape"/></filter></defs></svg>
